X: 40468
T: Tom Ward's Downfall
R: reel
M: 4/4
K: Cmajor
A|:BGGF GEDG|EDEG AEGE|DEGA BABd|ed d2 Bdgd|
BGGF GEDG|EDEG AEGE|DEGA ~B3 c|1 dBAc BAGA:|2 dBAc BABc||
dggf gedg|eaag a2 ga|bg~g2 agef|gedc BABc|
dggf gedg|eaag a2 ga|bg ~g2 agef|1 gedc BABc:|2 gedc BAGA||

